assets/icons/social/twitter.svg

<svg xmlns="http://www.w3.org/2000/svg" style="isolation:isolate" width="195" height="195"><defs><clipPath id="a"><path d="M0 0h195v195H0z"/></clipPath></defs><g clip-path="url(#a)"><path fill="#12100E" d="M0 0h195v195H0z"/><path d="M71.014 155.5c53.877 0 83.337-44.637 83.337-83.337 0-1.265 0-2.533-.081-3.787a59.594 59.594 0 0 0 14.611-15.165 58.583 58.583 0 0 1-16.817 4.614 29.393 29.393 0 0 0 12.87-16.207 58.658 58.658 0 0 1-18.601 7.116c-9.08-9.655-23.505-12.017-35.185-5.764-11.683 6.254-17.719 19.565-14.722 32.473a83.154 83.154 0 0 1-60.368-30.601c-7.78 13.381-3.819 30.505 9.048 39.106a29.06 29.06 0 0 1-13.198-3.677v.375c-.002 13.926 9.8 25.928 23.445 28.714a29.267 29.267 0 0 1-13.233.496 29.33 29.33 0 0 0 27.368 20.357 58.796 58.796 0 0 1-36.381 12.507 59.115 59.115 0 0 1-6.988-.406 82.912 82.912 0 0 0 44.895 13.151" fill="#FFF"/></g></svg>

<?xml version="1.0" standalone="no"?><!-- Generator: Gravit.io --><svg xmlns="http://www.w3.org/2000/svg" xmlns:xlink="http://www.w3.org/1999/xlink" style="isolation:isolate" viewBox="0 0 195 195" width="195" height="195"><defs><clipPath id="_clipPath_UuB62WYJ1XwthhGDlIKLhGgBeMh0UZOS"><rect width="195" height="195"/></clipPath></defs><g clip-path="url(#_clipPath_UuB62WYJ1XwthhGDlIKLhGgBeMh0UZOS)"><g><rect x="0" y="0" width="195" height="195" transform="matrix(1,0,0,1,0,0)" fill="rgb(18,16,14)"/></g><path d=" M 71.014 155.5 C 124.891 155.5 154.351 110.863 154.351 72.163 C 154.351 70.898 154.351 69.63 154.27 68.376 C 160.004 64.227 164.949 59.093 168.881 53.211 C 163.538 55.579 157.871 57.134 152.064 57.825 C 158.179 54.16 162.749 48.403 164.934 41.618 C 159.186 45.034 152.891 47.439 146.333 48.734 C 137.253 39.079 122.828 36.717 111.148 42.97 C 99.465 49.224 93.429 62.535 96.426 75.443 C 72.875 74.264 50.933 63.141 36.058 44.842 C 28.278 58.223 32.239 75.347 45.106 83.948 C 40.478 83.791 35.951 82.532 31.908 80.271 C 31.908 80.396 31.908 80.521 31.908 80.646 C 31.906 94.572 41.708 106.574 55.353 109.36 C 51.038 110.535 46.511 110.703 42.12 109.856 C 45.954 121.794 56.952 129.975 69.488 130.213 C 59.105 138.344 46.293 142.749 33.107 142.72 C 30.771 142.723 28.438 142.587 26.119 142.314 C 39.511 150.915 55.098 155.483 71.014 155.465" fill="rgb(255,255,255)"/></g></svg>
